X:810
T:Volunas Waltz
A:Wyresdale, Lancashire
B:E and J Winder, 1835-41
L:1/16
M:3/8
O:England
Z:Richard Robinson 
%%TUNEURL: http://www.leeds.ac.uk/music/Info/RRTuneBk/gettune/00001080.html
%%ID:00001080
K:F
F3(GAB) | (Ac)(ac)(ac) | (GB)(gB)(gB) | (Ac)(fc)(fc) | \
F3GAB | (Ac)(ac)(ac) | (GB)(gB)(gB) | {A}f4 z2 ::
{e}f2(FAcf) | (ag)(^fg)(fg) | {b}c'2(Gceg) | gfefef | \
F3(GAB)     | (Ac)(ac)(ac)  | (GB)(gB)(gB) | {F}f4 z2 ::
%
[K:Bb]\
(DF)(BF)(dF) | (DF)(BF)(dF) | {d}e2{d}e2{d}e2 | c3(GFE) | \
(DF)(BF)(dF) | (DF)(BF)(dF) | {d}e2{d}e2cA    | B6 ::
%
(ag) | \
(fg)(fg)(ab) | f4 (df) | {f}fe dc | (Bd)F2 (ag) |\
(fg)(fg)(ab) | !accent! f4 (df) | {f}e2e2 (cA) | B6 ::
%%newpage
%page 63
